X:1
T:St. Fulbert, CM
T:St. Fulbert, CM
T:Henry John Gaunlett, 1849
T:Public Domain Courtesy of the Cyber Hymnal™
C:Henry John Gaunlett, 1849
Z:Public Domain
Z:Courtesy of the Cyber Hymnal™
%%score ( 1 2 ) ( 3 4 )
L:1/8
Q:1/4=115
M:4/4
K:E
V:1 treble 
V:2 treble 
V:3 bass 
V:4 bass 
V:1
 [FB]2 | [EB]2 E2 [EF]2 [Dc]2 | [EB]2 [FA]2 [EG]2 [FB]2 | [EG]2 [EB]2 [Cc]2 [Ce]2 | [Fd]6 [Ge]2 | %5
 [EB]2 [Ec]2 [EB]2 E2 | [EA]2 [DA]2 [EG]2 [EG]2 | [EF]2 [EG]2 [EA]2 [DF]2 | E6 |] %9
V:2
 x2 | x2 E2 x4 | x8 | x8 | x8 | x6 E2 | x8 | x8 | E6 |] %9
V:3
 [D,B,]2 | [E,G,]2 [G,B,]2 [A,C]2 [A,F]2 | [G,B,]2 [D,B,]2 [E,B,]2 [D,B,]2 | %3
 [E,B,]2 [G,B,]2 [F,B,]2 [F,^A,]2 | [B,,B,]6 [E,B,]2 | [G,B,]2 A,2 [G,B,]2 [G,B,]2 | %6
 [F,C]2 [B,,B,]2 [E,B,]2 [C,C]2 | [A,,C]2 [G,,B,]2 [F,,C]2 [B,,A,]2 | [E,G,]6 |] %9
V:4
 x2 | x8 | x8 | x8 | x8 | x2 A,2 x4 | x8 | x8 | x6 |] %9

